X: 1
T: Pridi Janik
O: Czech
Z: 1997 by John Chambers <jc@trillian.mit.edu> http://trillian.mit.edu/~jc/music/
M: C|
L: 1/4
P: Play GG CC GG
K: G
[| "G"DG FG | AG FG | "D7".A2 .d2 | D4 | "G"B3 B | cB AG | c2 B2 | "D7"A4 |]
|: "G"d3 d | ed cB | AG FG | "D7"A2 d2 | D4 | "(G)"DG FG | "D7"A2 B2 |1 "G"GA Bc :|2 "G"G4 :|
%%sep 5 5 200
K: C
[| "C"Gc Bc | dc Bc | "G7".d2 .g2 | G4 | "C"e3 e | fe dc | f2 e2 | "G7"d4 |]
|: "C"g3 g | ag fe | dc Bc | "G7"d2 g2 | G4 | "(C)"Gc Bc | "G7"d2 e2 |1 "C"cd ef :|2 "C"c4 :|
%%sep 5 5 200
P: Bb instruments:
K: A
[| "A"EA GA | BA GA | "E7".B2 .e2 | E4 | "A"c3 c | dc BA | d2 c2 | "E7"B4 |]
|: "A"e3 e | fe dc | BA GA | "E7"B2 e2 | E4 | "(A)"EA GA | "E7"B2 c2 |1 "A"AB cd :|2 "A"A4 :|
%%sep 5 5 200
K: D
[| "D"Ad cd | ed cd | "A7".e2 .a2 | A4 | "D"f3 f | gf ed | g2 f2 | "A7"e4 |]
|: "D"a3 a | ba gf | ed cd | "A7"e2 a2 | A4 | "(D)"Ad cd | "A7"e2 f2 |1 "D"de fg :|2 "D"d4 :|
